X: 4532
T: Boring The Leather
R: jig
M: 6/8
K: Fmajor
|:A/G/|FDD FFA|cAA BAG|FDD FGA|cAF G2 A|
FDD FGA|cAG Acd|fef dfd|cAF G2:|
|:A|cAA fef|cAA c2 f|cAA fef|cAF G2 A|
cAA fdf|gfg a2 g|fef dfd|cAF G2:|

